X:5735
T:Gan Ainm
R:Reel
S:Billy McComiskey
H:
N:
D:Solo Album #1
Z:Adrian Scahill
M:4/4
L:1/8
K:C
G,CC2 ECCD|ECEG c3d|e2dB cBAG|cAGE DCA,C|\
G,CC2 ECCD|ECEG c3d|ecdB cAGE|FDB,D C4:||\
c2ec gcec|cdec dcAB|c2(3edc gcec|dedc BGAB|\
c2ec gcec|cdec dcAB|(3cdc Bc AcGE|FDB,D C4:||


